!!!!SEGMENT: pl-wtm--r-247-n--002_noskowski-zygmunt--nad-mogila.krn
!!!cenid: 18xx:2153
!!!COM: Noskowski, Zygmunt
!!!COM-rismid: pe106604
!!!CDT: 1846/05/02-1909/07/23
!!!CNT: Polish
!!!OTL: Nad mogiłą
!!!PDT:
!!!AGN: Sacred
!!!SMS-siglum: PL-Wtm
!!!SMS-shelfmark: R 247/N
!!!SMS-shelfwork: 002 W
!!!SMS-variant:
!!!SMS-altvar:
!!!NIFC-rismid: 1001100577
!!!URL-scan: http://repozytorium.nifc.pl/skany/pl-wtm-nut--r247n
!!!ONB-nifc: UWAGA: w zbiorze: 1. Salve Regina, 2. Nad mogiłą, 3. Veni creator
**kern	**text	**dynam	**kern	**text	**dynam
*part2	*part2	*part2	*part1	*part1	*part1
*staff2	*staff2	*	*staff1	*staff1	*
*I"Basy 1. 2.	*	*	*I"Tenory 1. 2.	*	*
*I'B	*	*	*I'T	*	*
*clefF4	*	*	*clefG2	*	*
*k[b-e-a-d-]	*	*	*k[b-e-a-d-]	*	*
*M2/2	*	*	*M2/2	*	*
*met(c)	*	*	*met(c)	*	*
=1	=1	=1	=1	=1	=1
*^	*	*	*^	*	*
!	!	!	!	!	!LO:TX:t=P:problem:4, 8\left, middle or right:global	!	!
!	!	!	!LO:DY:a:rj	!LO:TX:a:i:t=Andante con moto	!	!	!LO:DY:b:rj
2F/	2r	.	p	2cc/	2a-\	Duch	p
!	!	!	!LO:DY:b:rj	!	!	!	!
2F/	4FF\	Duch	mf	2cc/	2a-\	twój	.
.	(>8GG\L	twój	.	.	.	.	.
.	8AA-\J)	.	.	.	.	.	.
=2	=2	=2	=2	=2	=2	=2	=2
2F/	2E-\	.	.	2cc/	2a-\	wzle-	.
2F/	2D-\	.	.	2b-/	2g\	-ciał	.
=3	=3	=3	=3	=3	=3	=3	=3
2F/	2r	.	.	2dd-/	2b-\	przed	.
!	!	!	!LO:DY:b:rj	!	!	!	!
2G/	4BB-\	przed	mf	2ff/	2dd-\	Tron	.
!	!	!	!LO:HP:a:t=cresc	!	!	!	!LO:HP:a:t=cresc
.	(>8C\L	Tron	<	.	.	.	<
!	!	!	!LO:HP:b	!	!	!	!
.	8D-\J)	.	<	.	.	.	.
=4	=4	=4	=4	=4	=4	=4	=4
2B-/	2A-\	.	.	2ff/	2dd-\	Bo-	.
2B-/	2G\	.	[	2een/	2cc\	-ga,	.
*v	*v	*	*	*	*	*	*
=5	=5	=5	=5	=5	=5	=5
!	!	!LO:DY:a:rj	!LO:TX:a:t=P:problem:oznaczenie dynamiczne na pięciolinii przed nutą	!	!	!LO:DY:a:rj
1c 1B-	.	f	(>2.aa-/	1een	Żal	f
.	.	.	4gg/)	.	.	.
=6	=6	=6	=6	=6	=6	=6
*^	*	*	*	*	*	*
2B-/	(<4G\	.	.	(>4een/	2cc\	zo-	.
.	4En\)	.	.	4gg/)	.	.	.
4A-/	4F\	.	.	4ff/	4cc\	-stał	.
4F/	4AA-\	.	.	4ee-X/	4cc\	po	.
!!LO:LB:g=original
=7	=7	=7	=7	=7	=7	=7	=7
1F	(<2.BB-\	.	.	1dd-	(<2cc\	to-	.
.	.	.	.	.	4b-\	.	.
.	4BBn\)	.	.	.	4a-\)	.	.
*	*	*	*	*v	*v	*	*
=8	=8	=8	=8	=8	=8	=8
*	*	*	*^	*	*	*
1En	(<2C\	.	.	.	1cc 1g	bie,	.
!	!	!	!LO:HP:a	!LO:HP:b	!	!	!LO:HP:a
.	.	.	>	>	.	.	>
.	2BB-X\)	.	]]	]]	.	.	]]
*	*	*	*v	*v	*	*	*
=9	=9	=9	=9	=9	=9	=9
*	*	*	*	*^	*	*
!	!	!	!LO:DY:b:rj	!LO:TX:a:t=P:problem:oznaczenie dynamiczne na pięciolinii przed nutą	!	!	!LO:DY:a:rj
2E-X/	2AA-\	.	p	2cc/	2a-\	Po-	p
2F/	2D-\	.	.	2a-/	2a-\	-zo-	.
=10	=10	=10	=10	=10	=10	=10	=10
2A-/	2BB-\	.	.	2.ff/	2.dd-\	-sta-	.
2G/	2E-\	.	.	.	.	.	.
.	.	.	.	(>8dd-/L	(<8b-\L	-je	.
.	.	.	.	8ee-/J)	8cc\J)	.	.
=11	=11	=11	=11	=11	=11	=11	=11
*	*	*	*	*	*	*	*^
2G/	2D-\	.	.	2ff/	2b-\	pa-	.	.
!	!	!	!LO:HP:b	!	!	!	!LO:HP:a	!LO:HP:b
.	.	.	<	.	.	.	<	<
2A-/	2C\	.	[[	2ee-/	2cc\	-mięć	[[	[[
*	*	*	*	*	*	*	*v	*v
=12	=12	=12	=12	=12	=12	=12	=12
!	!	!	!LO:DY:b:rj	!LO:TX:a:t=P:problem:oznaczenie dynamiczne na pięciolinii przed nutą	!	!	!LO:DY:b:rj
2.B-/	2BB-\	.	mf	2.aa-/	(<2dd-\	bło-	mf
!	!	!	!LO:HP:b	!	!	!	!LO:HP:a
.	2F\	.	>	.	4ddn\)	.	>
4A-/	.	.	]]	4ddn/	4b-\	-ga,	]]
=13	=13	=13	=13	=13	=13	=13	=13
2A-/	2Dn\	.	.	(>4gg/	2b-\	Pły-	.
.	.	.	.	4ff/)	.	.	.
2G/	2E-\	.	.	(>4ee-/	2b-\	-nie	.
.	.	.	.	4dd-X/)	.	.	.
!!LO:LB:g=original
=14	=14	=14	=14	=14	=14	=14	=14
*	*	*	*	*	*	*	*^
(>4A-/	(<4F\	.	.	2cc/	2a-\	łza	.	.
4G/)	4E-\)	.	.	.	.	.	.	.
!	!	!	!LO:HP:b	!	!	!	!LO:HP:a	!LO:HP:b
2F/	(<4D-X\	.	<	(>4cc/	2a-\	na	<	<
.	4C\)	.	[[	4ee-/)	.	.	[[	[[
*	*	*	*	*	*	*	*v	*v
=15	=15	=15	=15	=15	=15	=15	=15
(>4G/	(<2BB-\	.	.	(>2.dd-/	(<4b-\	gro-	.
!	!	!	!LO:HP:b	!	!	!	!LO:HP:a
4A-/	.	.	>	.	4cc\	.	>
4F/	2E-\)	.	.	.	4a-\	.	.
4E-/)	.	.	]	4g/)	4g\)	.	]
=16	=16	=16	=16	=16	=16	=16	=16
2C/	2AA-\	.	.	2a-/	2e-\	-bie.	.
4r	4ryy	.	.	4r	4ryy	.	.
!	!	!	!LO:DY:b:rj	!	!LO:TX:a:t=P:problem:oznaczenie dynamiczne na pięciolinii przed nutą	!	!LO:DY:a:rj
4C/	4C\	.	p	4cc/	4cc\	Żeg-	p
=17	=17	=17	=17	=17	=17	=17	=17
4.E-^^>/	4.E-\	.	.	4.ee-^^>/	4.ee-\	-na-	.
8D-/	8D-\	.	.	8dd-/	8dd-\	-my	.
2GG/	2GG\	.	.	2g/	2g\	cię	.
=18	=18	=18	=18	=18	=18	=18	=18
!	!	!	!LO:HP:b	!	!	!	!LO:HP:a
2.BB-/	2.BB-\	.	<	2.b-/	2.b-\	raz	<
4BBn/	4BBn\	.	[	4bn/	4bn\	os-	[
=19	=19	=19	=19	=19	=19	=19	=19
(>4C/	(<2C\	.	.	(>2.cc/	(<4cc\	-ta-	.
!	!	!	!LO:HP:b	!	!	!	!
4G/	.	.	>	.	4b-X\	.	.
!	!	!	!	!	!	!	!LO:HP:a
2F/)	4D-\	.	.	.	4a-\	.	>
.	4Dn\)	.	]	4bn/)	4g\)	.	]
!!LO:LB:g=original
=20	=20	=20	=20	=20	=20	=20	=20
2En/	2En\	.	.	2cc/	2g\	tni,	.
!	!	!	!LO:HP:b	!	!	!	!LO:HP:a
4C/	4C\	.	<	4cc/	4cc\	A	<
4D-X/	4D-X\	.	[[	4dd-/	4dd-\	na	[[
=21	=21	=21	=21	=21	=21	=21	=21
!	!	!	!LO:DY:b:rj	!	!	!	!LO:DY:a:rj
[>1G	(<2G\	.	f	(>2gg/	(<2g\	twą	f
.	2BBn\	.	.	2ff/	2dd-\	.	.
=22	=22	=22	=22	=22	=22	=22	=22
2G/]	2C\)	.	.	2ee-/)	2cc\)	.	.
2G/	2F\	.	.	2dd-/	2b-\	mo-	.
=23	=23	=23	=23	=23	=23	=23	=23
(>2G/	(<4D-\	.	.	(>2ff/	(<2b-\	-gi-	.
!	!	!	!LO:HP:b	!	!	!	!LO:HP:a
.	.	.	>	.	.	.	>
.	4C\	.	.	.	.	.	.
4D-/	4BB-\	.	.	4g/	4f\	.	.
4F/)	4GG\)	.	]]	4dd-/)	4b-\)	.	]]
=24	=24	=24	=24	=24	=24	=24	=24
2.En/	2.C\	.	.	2.cc/	2.g\	-łę	.
4r	4ryy	.	.	4r	4ryy	.	.
=25	=25	=25	=25	=25	=25	=25	=25
!	!	!	!LO:DY:a:rj	!	!	!	!LO:DY:b:rj
2F/	2r	.	p	2cc/	2a-\	Łzą	p
!	!	!	!LO:DY:b:rj	!	!	!	!
2F/	4FF\	Łzą	mf	2cc/	2a-\	zro-	.
.	(>8GG\L	zro-	.	.	.	.	.
.	8AA-\J)	.	.	.	.	.	.
=26	=26	=26	=26	=26	=26	=26	=26
2F/	2E-\	-szo-	.	2cc/	2a-\	-szo-	.
2F/	2D-\	-ną	.	2b-/	2g\	-ną	.
!!LO:LB:g=original
=27	=27	=27	=27	=27	=27	=27	=27
2F/	2r	.	.	2dd-/	2b-\	z dło-	.
2B-/	4BB-\	z dło-	.	2ff/	2dd-\	-ni	.
.	(>8C\L	-ni	.	.	.	.	.
!	!	!	!LO:HP:b	!	!	!	!LO:HP:a
.	8D-\J)	.	<	.	.	.	<
=28	=28	=28	=28	=28	=28	=28	=28
2B-/	2A-\	.	.	2ff/	2dd-\	brat-	.
2B-/	2G\	.	[	2een/	2cc\	-niej	[
=29	=29	=29	=29	=29	=29	=29	=29
!	!	!	!LO:DY:a:rj	!LO:TX:a:t=P:problem:oznaczenie dynamiczne na pięciolinii przed nutą	!	!	!LO:DY:a:rj
2.c/	2.B-\	.	f	2.aa-/	2.een\	Zie-	f
4c/	4B-\	.	.	4gg/	4ee\	-mi	.
=30	=30	=30	=30	=30	=30	=30	=30
(>2B-/	(<4G\	.	.	(>4een/	2.cc\	przyj-	.
.	4En\	.	.	4gg/	.	.	.
4A-/)	4F\)	.	.	4ff/)	.	.	.
4F/	4AA-\	.	.	4ee-X/	4cc\	-mij	.
=31	=31	=31	=31	=31	=31	=31	=31
1F	(<2.BB-\	.	.	1dd-	(<2cc\	bry-	.
!	!	!	!LO:HP:b	!	!	!	!LO:HP:a
.	.	.	>	.	.	.	>
.	.	.	.	.	4b-\	.	.
.	4BBn\)	.	]]	.	4a-\)	.	]]
=32	=32	=32	=32	=32	=32	=32	=32
2En/	2C\	.	.	2cc/	2g\	-łę.	.
*	*	*	*	*	*	*above	*
!	!	!	!	!	!LO:TX:a:t=P:problem:tekst w t. 32-33 nad nutami	!	!LO:DY:a:rj
2r	2ryy	.	.	4bn/	2r	Wiecz-	p
.	.	.	.	4cc/	.	-na	.
=33	=33	=33	=33	=33	=33	=33	=33
2r	2ryy	.	.	2.ff/	2r	wiecz-	.
*	*	*above	*	*	*	*	*
!	!LO:TX:a:t=P:problem:tekst w t. 33 nad nutami	!	!LO:DY:b:rj	!	!	!	!LO:DY:b:rj
4F/	4AAn\	Wiecz-	p	.	4cc\	.	p
4F/	4C\	-na	.	4ee-/	4an\	-na	.
*	*	*below	*	*	*	*below	*
!!LO:LB:g=original
=34	=34	=34	=34	=34	=34	=34	=34
(>4G-X/	(<4E-\	.	.	(>4cc/	(<4b-\	pa-	.
4B-/	4C\	.	.	4gg-X/	4ee-\	.	.
4An/)	4F\)	.	.	4ff/)	4cc\)	.	.
4A/	4F\	.	.	4ee-/	4cc\	-mięć	.
=35	=35	=35	=35	=35	=35	=35	=35
*	*	*	*	*	*	*	*^
2B-/	2G-X\	.	.	(>1dd-	(<1b-	twa.	.	.
!	!	!	!	!	!	!	!LO:HP:a	!LO:HP:b
.	.	.	.	.	.	.	<	<
!	!	!	!LO:DY:b:rj	!	!	!	!	!
2r	4En\	Wiecz-	f	.	.	.	.	.
.	4F\	-na,	.	.	.	.	[	[
*	*	*	*	*	*	*	*v	*v
=36	=36	=36	=36	=36	=36	=36	=36
1r	4c\	wiecz-	.	2ff/)	2dd-\)	.	.
.	4B-\	-na	.	.	.	.	.
.	4F\	pa-	.	2r	2ryy	.	.
.	4E-X\	-mięć	.	.	.	.	.
=37	=37	=37	=37	=37	=37	=37	=37
*	*	*	*^	*	*	*	*
2r	1D-	twa	.	.	2r	2ryy	.	.
!	!	!	!LO:HP:b	!	!	!	!	!
.	.	.	>	.	.	.	.	.
!	!	!	!	!LO:DY:a:rj	!	!LO:TX:a:t=P:problem:oznaczenie dynamiczne na pięciolinii przed nutą	!	!LO:DY:a:rj
4B-/	.	.	.	p	4gg-X/	4dd-\	A	p
4B-/	.	.	]	.	4gg-/	4dd-\	nam	.
*	*	*	*v	*v	*	*	*	*
=38	=38	=38	=38	=38	=38	=38	=38
!	!	!	!LO:DY:b:rj	!	!	!	!
2G-X/	2D-\	Nam	p	2dd-/	2b-\	z o-	.
(<4E-/	4D-\	z o-	.	2ee-/	(<4g-X\	-czu	.
4F/)	4C-X\	-czu	.	.	4a-\)	.	.
=39	=39	=39	=39	=39	=39	=39	=39
(>2G-X/	2BB-\	.	.	2.ee-/	(<2b-\	pły-	.
4F/)	2AA-\	.	.	.	4cc-X\)	.	.
4D-/	.	.	.	4cc-X/	4f\	-nie	.
=40	=40	=40	=40	=40	=40	=40	=40
1D-;>	1GG-X;<	.	.	1b-;>	1f-X;<	łza	.
=41	=41	=41	=41	=41	=41	=41	=41
!	!	!	!LO:DY:b:rj	!	!	!	!
2r	2En\	A-	p	2r	2ryy	.	.
!	!	!	!LO:DY:a:rj	!LO:TX:a:t=P:problem:oznaczenie dynamiczne na pięciolinii przed nutą	!	!	!LO:DY:a:rj
4G-X/	2E\	-nam	p	4dd-/	4b-\	A	p
4G-/	.	.	.	4dd-/	4b-\	nam	.
!!LO:LB:g=original
=42	=42	=42	=42	=42	=42	=42	=42
(>2Gn/	(<2En\	.	.	(>2cc/	(<2b-\	z o-	.
4F/)	4F\)	.	.	4ff/)	4a-\)	.	.
4F/	4E-X\	.	.	4a-/	4a-\	-czu	.
=43	=43	=43	=43	=43	=43	=43	=43
2.F/	(<4D-\	.	.	2.cc/	2.a-\	pły-	.
.	8AA-\L	.	.	.	.	.	.
.	8BB-\J	.	.	.	.	.	.
.	4C\)	.	.	.	.	.	.
4En/	4C\	.	.	(>8cc/L	4b-\	-nie	.
.	.	.	.	8dd-/J)	.	.	.
=44	=44	=44	=44	=44	=44	=44	=44
2F/	2FF\	.	.	2cc/	2a-\	łza,	.
!LO:TX:b:i:t=sost	!	!	!	!LO:TX:a:i:t=sost	!	!	!
4F/	4FF\	.	.	4cc/	4a-\	pły-	.
(<8E-/L	4FF\	.	.	4dd-/	4b-\	-nie	.
8D-/J)	.	.	.	.	.	.	.
=45	=45	=45	=45	=45	=45	=45	=45
*	*	*	*^	*	*	*	*^
!	!	!	!LO:HP:a	!LO:HP:b	!	!	!	!LO:HP:a	!LO:HP:b
[>1C	[<1FF	.	<	<	[>1ff	[<1a-	łza	<	<
!	!	!	!LO:HP:a	!LO:HP:b	!	!	!	!LO:HP:a	!LO:HP:b
.	.	.	[ >	[ >	.	.	.	[ >	[ >
.	.	.	]	.	.	.	.	]	]
=46	=46	=46	=46	=46	=46	=46	=46	=46	=46
4C/]	4FF\]	.	.	]	4ff/]	4a-\]	.	.	.
4r	2.ryy	.	.	.	4r	2.ryy	.	.	.
2r	.	.	.	.	2r	.	.	.	.
*	*	*	*v	*v	*	*	*	*v	*v
*v	*v	*	*	*	*	*	*
*	*	*	*v	*v	*	*
==	==	==	==	==	==
*-	*-	*-	*-	*-	*-
!!!system-decoration: {(s1,s2)}
!!!RDF**kern: > = above
!!!RDF**kern: < = below
!!!EED: Antoni Szymański
!!!EST: 2021-06-02
!!!ENC: Tomasz Grochalski
!!!END: 2021-05-22
